!!!COM: Ockeghem, Johannes
!!!CDT: ~1425-1497/02/06
!!!OTL: L'autre d'antan
!!!AGN: Song; Chanson
!!!SCT: Ock3009
!!!SCA: Ock3009
!!!voices: 3
**kern	**text	**kern	**text	**kern	**text
*staff3	*staff3	*staff2	*staff2	*staff1	*staff1
*Ivox	*	*Ivox	*	*Ivox	*
*I"Contratenor	*	*I"Tenor	*	*I"Superius	*
*I'Ct	*	*I'T	*	*I'S	*
*clefGv2	*	*clefGv2	*	*clefG2	*
*k[]	*	*k[]	*	*k[]	*
*M3/1	*	*M3/1	*	*M3/1	*
*met(O3)	*	*met(O3)	*	*met(O3)	*
*>A	*>A	*>A	*>A	*>A	*>A
!!LO:LB:g=z
=1-	=1-	=1-	=1-	=1-	=1-
!!LO:TX:Z=12:t=Form&colon; rondeau
!!LO:TX:Z=42:t=Mensuration&colon; O3
1.D	L'au-	0.r	.	0.r	.
2E	-tre	.	.	.	.
1F	d'an-	.	.	.	.
=2	=2	=2	=2	=2	=2
1.G	-tan	1.G	L'au-	0.r	.
4F	.	2A	-tre	.	.
4E	.	.	.	.	.
1D	.	1B	d'an-	.	.
=3	=3	=3	=3	=3	=3
0C	.	0c	-tan	1.g	L'au-
.	.	.	.	2a	-tre
1r	.	1d	l'au-	1b	d'an-
=4	=4	=4	=4	=4	=4
0C	l'au-	0e	-trier	0cc	-tan
[1G	-trier	1d	.	1b	l'au-
=5	=5	=5	=5	=5	=5
1G]	.	1B	.	1g	-trier
0F	pas-	0c	.	0a	pas-
=6	=6	=6	=6	=6	=6
1.G	.	1.B	pas-	0b	-sa
2F	.	2c	.	.	.
1D	.	1d	.	1r	.
=7	=7	=7	=7	=7	=7
0d	-sa	0G	-sa	1b	Et
.	.	.	.	1b	en
1e	Et	1r	.	1cc	pas-
=8	=8	=8	=8	=8	=8
1d	en	1G	Et	0dd	-sant
0g	pas-	1G	en	.	.
.	.	1G	pas-	1dd	me
=9	=9	=9	=9	=9	=9
1.f	-sant	0D	-sant	0dd	trans-
2d	.	.	.	.	.
1e	.	1r	.	1cc	.
=10	=10	=10	=10	=10	=10
0g	.	1r	.	1b	.
.	.	1r	.	0a	-per-
1f#i	me	1d	me	.	.
=11	=11	=11	=11	=11	=11
0g	trans-	0e	trans-	0g	-&ccedil;a
1f	-per-	1d	.	1r	.
=12	=12	=12	=12	=12	=12
1e	-&ccedil;a	1c	.	0.r	.
1d	.	0B	-per-	.	.
1r	.	.	.	.	.
=13	=13	=13	=13	=13	=13
1.a	D'un	0.A	-&ccedil;a	1cc	D'un
.	.	.	.	1cc	re-
2g	re-	.	.	.	.
1f	-gard	.	.	1cc	-gard
=14	=14	=14	=14	=14	=14
0e	for-	1c	D'un	0g	for-
.	.	1c	re-	.	.
1e	-g&eacute;	1c	-gard	1a	-g&eacute;
=15	=15	=15	=15	=15	=15
1d	a	0G	for-	0b	a
0g	.	.	.	.	.
.	.	[1c	.	1a	.
=16	=16	=16	=16	=16	=16
1.c	.	1c]	.	1g	.
.	.	0d	-g&eacute;	0f	Mil-
2A	.	.	.	.	.
1B	.	.	.	.	.
=17	=17	=17	=17	=17	=17
1.c	.	0A	a	0.e	-lan,
2d	.	.	.	.	.
1e	.	1G	.	.	.
=18	=18	=18	=18	=18	=18
0d	.	1F	.	0.r	.
.	.	0E	Mil-	.	.
1c#i	Mil-	.	.	.	.
=19	=19	=19	=19	=19	=19
0.d	-lan,	0D	-lan,	0a	Qui
.	.	1r	.	[1a	m'a
=20	=20	=20	=20	=20	=20
*>B	*>B	*>B	*>B	*>B	*>B
1.c	Qui	1r	.	1a]	.
.	.	1r	.	1g	.
2B	.	.	.	.	.
1A	m'a	1c	Qui	2f	.
.	.	.	.	2e	.
=21	=21	=21	=21	=21	=21
1B	.	0d	m'a	0.d	mis
0G	mis	.	.	.	.
.	.	[1B	mis	.	.
=22	=22	=22	=22	=22	=22
1d	en	1B]	.	0g	en
1e	.	1c	en	.	.
1f	.	1A	.	1a	.
=23	=23	=23	=23	=23	=23
1.g	l'ar-	1.G	l'ar-	0b	l'ar-
2f	.	2A	.	.	.
1d	.	1B	.	1g	.
=24	=24	=24	=24	=24	=24
2r	.	1c	.	0a	.
1c	-rie-	.	.	.	.
.	.	0A	.	.	.
2d	.	.	.	.	.
2e	.	.	.	1cc	.
2f	.	.	.	.	.
=25	=25	=25	=25	=25	=25
[0.g	.	1G	.	1dd	.
.	.	0c	.	1.ee	.
.	.	.	.	2cc	.
=26	=26	=26	=26	=26	=26
1g]	.	1e	-rie-	0cc	-rie-
0f	-re	0d	-re	.	.
.	.	.	.	1b	-re
=27	=27	=27	=27	=27	=27
0.g	ban,	0c	ban,	0cc	ban,
.	.	1c	Tant	1r	.
=28	=28	=28	=28	=28	=28
0.r	.	0c	mau-	0ee	Tant
.	.	[1B	-vais	1dd	mau-
=29	=29	=29	=29	=29	=29
1.G	Tant	2B]	.	1.b	-vais
.	.	2c	.	.	.
.	.	1d	.	.	.
2A	mau-	.	.	2cc	.
1B	-vais	1G	bras-	1dd	.
=30	=30	=30	=30	=30	=30
1c	bras-	0c	-sin	1g	bras-
0A	-sin	.	.	0cc	-sin
.	.	1A	me	.	.
=31	=31	=31	=31	=31	=31
1.D	me	0d	bras-	1b	me
.	.	.	.	0a	bras-
2E	.	.	.	.	.
1F	bras-	1d	-sa.	.	.
=32	=32	=32	=32	=32	=32
1.G	-sa.	1.G	L'au-	0b	-sa.
4F	.	2A	-tre	.	.
4E	.	.	.	.	.
1D	.	1B	d'an-	1r	.
=33	=33	=33	=33	=33	=33
1C	L'au-	1c	-tan	1.g	L'au-
0G	-tre	1d	.	.	.
.	.	.	.	2a	-tre
.	.	2c	.	1b	d'an-
.	.	2B	.	.	.
=34	=34	=34	=34	=34	=34
1F	d'an-	0A	.	0cc	-tan
1c	-tan	.	.	.	.
1d	l'au-	1G	l'au-	1b	l'au-
=35	=35	=35	=35	=35	=35
1e	-trier	2F	-trier	1g	-trier
.	.	2E	.	.	.
1f	.	1D	.	0a	pas-
2e	.	1A	pas-	.	.
2d	.	.	.	.	.
=36	=36	=36	=36	=36	=36
0d	pas-	1B	.	0g	.
.	.	0A	.	.	.
1c	.	.	.	1f#i	.
=37	=37	=37	=37	=37	=37
0.dl	-sa.	0.Gl	-sa.	0.gl	-sa.
!!LO:LB:g=z
=||	=||	=||	=||	=||	=||
*I"Contratenor	*	*I"Tenor	*	*I"Superius	*
*I'Ct	*	*I'T	*	*I'S	*
*clefGv2	*	*clefGv2	*	*clefG2	*
*k[]	*	*k[]	*	*k[]	*
*M3/1	*	*M3/1	*	*M3/1	*
*met(O3)	*	*met(O3)	*	*met(O3)	*
*>A	*>A	*>A	*>A	*>A	*>A
1.D	Par	0.r	.	0.r	.
2E	tel	.	.	.	.
1F	fa-	.	.	.	.
=39	=39	=39	=39	=39	=39
1.G	-&ccedil;on	1.G	Par	0.r	.
4F	.	2A	tel	.	.
4E	.	.	.	.	.
1D	.	1B	fa-	.	.
=40	=40	=40	=40	=40	=40
0C	.	0c	-&ccedil;on	1.g	Par
.	.	.	.	2a	tel
1r	.	1d	me	1b	fa-
=41	=41	=41	=41	=41	=41
0C	me	0e	fri-	0cc	-&ccedil;on
[1G	fri-	1d	.	1b	me
=42	=42	=42	=42	=42	=42
1G]	.	1B	.	1g	fri-
0F	-cas-	0c	.	0a	-cas-
=43	=43	=43	=43	=43	=43
1.G	.	1.B	-cas-	0b	-sa
2F	.	2c	.	.	.
1D	.	1d	.	1r	.
=44	=44	=44	=44	=44	=44
0d	-sa	0G	-sa	1b	Que
.	.	.	.	1b	de
1e	Que	1r	.	1cc	ses
=45	=45	=45	=45	=45	=45
1d	de	1G	Que	0dd	gai-
0g	ses	1G	de	.	.
.	.	1G	ses	1dd	-ges
=46	=46	=46	=46	=46	=46
1.f	gai-	0D	gaiges	0dd	me
2d	.	.	.	.	.
1e	.	1r	.	1cc	.
=47	=47	=47	=47	=47	=47
0g	-ges	1r	.	1b	.
.	.	1r	.	0a	cas-
1f#i	me	1d	me	.	.
=48	=48	=48	=48	=48	=48
0g	cas-	0e	cas-	0g	-sa,
1f	.	1d	.	1r	.
=49	=49	=49	=49	=49	=49
1e	-sa,	1c	.	0.r	.
1d	.	0B	.	.	.
1r	.	.	.	.	.
=50	=50	=50	=50	=50	=50
1.a	Mais,	0.A	-sa,	1cc	Mais,
.	.	.	.	1cc	par
2g	par	.	.	.	.
1f	Dieu,	.	.	1cc	Dieu,
=51	=51	=51	=51	=51	=51
0e	el-	1c	Mais,	0g	el-
.	.	1c	par	.	.
1e	-le	1c	Dieu,	1a	-le
=52	=52	=52	=52	=52	=52
1d	fist	0G	el-	0b	fist
0g	.	.	.	.	.
.	.	[1c	.	1a	.
=53	=53	=53	=53	=53	=53
1.c	.	1c]	.	1g	.
.	.	0d	-le	0f	son
2A	.	.	.	.	.
1B	.	.	.	.	.
=54	=54	=54	=54	=54	=54
1.c	.	0A	fist	0.e	dan!&
2d	.	.	.	.	.
1e	.	1G	.	.	.
=55	=55	=55	=55	=55	=55
0d	.	1F	.	0.rN	.
.	.	0E	son	.	.
1c#i	son	.	.	.	.
=56	=56	=56	=56	=56	=56
0.dN	dan!&	0DN	dan!&	0a	.
.	.	1r	.	1a	.
!!LO:LB:g=z
=57	=57	=57	=57	=57	=57
*I"Contratenor	*	*I"Tenor	*	*I"Superius	*
*I'Ct	*	*I'T	*	*I'S	*
*clefGv2	*	*clefGv2	*	*clefG2	*
*k[]	*	*k[]	*	*k[]	*
*M3/1	*	*M3/1	*	*M3/1	*
*met(O3)	*	*met(O3)	*	*met(O3)	*
*>A	*>A	*>A	*>A	*>A	*>A
!!LO:TX:Z=42:t=Mensuration&colon; O3
1.D	L'au-	0.r	.	0.r	.
2E	-tre	.	.	.	.
1F	d'an-	.	.	.	.
=58	=58	=58	=58	=58	=58
1.G	-tan	1.G	L'au-	0.r	.
4F	.	2A	-tre	.	.
4E	.	.	.	.	.
1D	.	1B	d'an-	.	.
=59	=59	=59	=59	=59	=59
0C	.	0c	-tan	1.g	L'au-
.	.	.	.	2a	-tre
1r	.	1d	l'au-	1b	d'an-
=60	=60	=60	=60	=60	=60
0C	l'au-	0e	-trier	0cc	-tan
[1G	-trier	1d	.	1b	l'au-
=61	=61	=61	=61	=61	=61
1G]	.	1B	.	1g	-trier
0F	pas-	0c	.	0a	pas-
=62	=62	=62	=62	=62	=62
1.G	.	1.B	pas-	0b	-sa
2F	.	2c	.	.	.
1D	.	1d	.	1r	.
=63	=63	=63	=63	=63	=63
0d	-sa	0G	-sa	1b	Et
.	.	.	.	1b	en
1e	Et	1r	.	1cc	pas-
=64	=64	=64	=64	=64	=64
1d	en	1G	Et	0dd	-sant
0g	pas-	1G	en	.	.
.	.	1G	pas-	1dd	me
=65	=65	=65	=65	=65	=65
1.f	-sant	0D	-sant	0dd	trans-
2d	.	.	.	.	.
1e	.	1r	.	1cc	.
=66	=66	=66	=66	=66	=66
0g	.	1r	.	1b	.
.	.	1r	.	0a	-per-
1f#i	me	1d	me	.	.
=67	=67	=67	=67	=67	=67
0g	trans-	0e	trans-	0g	-&ccedil;a
1f	-per-	1d	.	1r	.
=68	=68	=68	=68	=68	=68
1e	-&ccedil;a	1c	.	0.r	.
1d	.	0B	-per-	.	.
1r	.	.	.	.	.
=69	=69	=69	=69	=69	=69
1.a	D'un	0.A	-&ccedil;a	1cc	D'un
.	.	.	.	1cc	re-
2g	re-	.	.	.	.
1f	-gard	.	.	1cc	-gard
=70	=70	=70	=70	=70	=70
0e	for-	1c	D'un	0g	for-
.	.	1c	re-	.	.
1e	-g&eacute;	1c	-gard	1a	-g&eacute;
=71	=71	=71	=71	=71	=71
1d	a	0G	for-	0b	a
0g	.	.	.	.	.
.	.	[1c	.	1a	.
=72	=72	=72	=72	=72	=72
1.c	.	1c]	.	1g	.
.	.	0d	-g&eacute;	0f	Mil-
2A	.	.	.	.	.
1B	.	.	.	.	.
=73	=73	=73	=73	=73	=73
1.c	.	0A	a	0.e	-lan,
2d	.	.	.	.	.
1e	.	1G	.	.	.
=74	=74	=74	=74	=74	=74
0d	.	1F	.	0.rN	.
.	.	0E	Mil-	.	.
1c#i	Mil-	.	.	.	.
=75	=75	=75	=75	=75	=75
0.dN	-lan,	0DN	-lan,	0a	Qui
.	.	1r	.	1a	m'a
!!LO:LB:g=z
=	=	=	=	=	=
!!!RDF**kern: l = long note in original notation
!!!RDF**kern: i = editorial accidental
!!!RDF**kern: V = start of tuplet marker
!!!RDF**kern: Z = end of tuplet marker
!!!RDF**kern: N = signum congruentiae
!!!ENC: Jesse Rodin 18 April 2018
!!!END: 2018/04/17/
!!!EED: Jesse Rodin
!!!EEV: 2018/07/23/
!!!ONB: Translated from MusicXML and edited on 2018/07/23/ by Craig Sapp
!!!COM: Ockeghem, Johannes
!!!CDT: ~1425-1497/02/06
!!!OTL: L'autre d'antan
!!!AGN: Song; Chanson
!!!SCT: Ock3009
!!!SCA: Ock3009
!!!voices: 3
*staff3	*staff3	*staff2	*staff2	*staff1	*staff1
*Ivox	*	*Ivox	*	*Ivox	*
*I"Contratenor	*	*I"Tenor	*	*I"Superius	*
*I'Ct	*	*I'T	*	*I'S	*
*clefGv2	*	*clefGv2	*	*clefG2	*
*k[]	*	*k[]	*	*k[]	*
*M3/1	*	*M3/1	*	*M3/1	*
*met(O3)	*	*met(O3)	*	*met(O3)	*
*>A	*>A	*>A	*>A	*>A	*>B
!!LO:TX:Z=12:t=Form&colon; rondeau
!!LO:TX:Z=42:t=Mensuration&colon; O3
1.D	Puis	0.r	.	0.r	.
2E	a-	.	.	.	.
1F	-pr&egrave;s	.	.	.	.
=77	=77	=77	=77	=77	=77
1.G	nos-	1.G	Puis	0.r	.
4F	.	2A	a-	.	.
4E	.	.	.	.	.
1D	-tre a-	1B	-pr&egrave;s	.	.
=78	=78	=78	=78	=78	=78
0C	-mour	0c	nos-	1.g	Puis
.	.	.	.	2a	a-
1r	.	1d	-tre a-	1b	-pr&egrave;s
=79	=79	=79	=79	=79	=79
0C	ces-	0e	-mour	0cc	nos-
[1G	.	1d	.	1b	-tre a-
=80	=80	=80	=80	=80	=80
1G]	.	1B	.	1g	-mour
0F	.	0c	.	0a	ces-
=81	=81	=81	=81	=81	=81
1.G	.	1.B	ces-	0b	-sa,
2F	.	2c	.	.	.
1D	.	1d	.	1r	.
=82	=82	=82	=82	=82	=82
0d	-sa,	0G	-sa,	1b	Car
.	.	.	.	1b	onc-
1e	Car	1r	.	1cc	-ques
=83	=83	=83	=83	=83	=83
1d	onc-	1G	Car	0dd	puis
0g	-ques	1G	onc-	.	.
.	.	1G	-ques	1dd	qu'el-
=84	=84	=84	=84	=84	=84
1.f	puis	0D	puis	0dd	-le
2d	.	.	.	.	.
1e	.	1r	.	1cc	.
=85	=85	=85	=85	=85	=85
0g	.	1r	.	1b	.
.	.	1r	.	0a	dan-
1f#i	qu'el-	1d	qu'el-	.	.
=86	=86	=86	=86	=86	=86
0g	-le	0e	-le	0g	-sa,
1f	dan-	1d	.	1r	.
=87	=87	=87	=87	=87	=87
1e	-sa,	1c	.	0.r	.
1d	.	0B	dan-	.	.
1r	.	.	.	.	.
=88	=88	=88	=88	=88	=88
1.a	L'au-	0.A	-sa,	1cc	L'au-
.	.	.	.	1cc	-tre
2g	-tre	.	.	.	.
1f	d'an-	.	.	1cc	d'an-
=89	=89	=89	=89	=89	=89
0e	-tan,	1c	L'au-	0g	-tan,
.	.	1c	-tre	.	.
1e	l'au-	1c	d'an-	1a	l'au-
=90	=90	=90	=90	=90	=90
1d	-tre	0G	-tan,	0b	-tre
0g	.	.	.	.	.
.	.	[1c	.	1a	.
=91	=91	=91	=91	=91	=91
1.c	.	1c]	.	1g	.
.	.	0d	l'au-	0f	d'an-
2A	.	.	.	.	.
1B	.	.	.	.	.
=92	=92	=92	=92	=92	=92
1.c	.	0A	-tre	0.e	-tan
2d	.	.	.	.	.
1e	.	1G	.	.	.
=93	=93	=93	=93	=93	=93
0d	.	1F	.	0.r	.
.	.	0E	d'an-	.	.
1c#i	d'an-	.	.	.	.
=94	=94	=94	=94	=94	=94
0.d	-tan	0D	-tan	0a	Je
.	.	1r	.	[1a	n'eus
=95	=95	=95	=95	=95	=95
*>B	*>B	*>B	*>B	*>B	*>B
1.c	Je	1r	.	1a]	.
.	.	1r	.	1g	.
2B	.	.	.	.	.
1A	n'eus	1c	Je	2f	.
.	.	.	.	2e	.
=96	=96	=96	=96	=96	=96
1B	.	0d	n'eus	0.d	ne
0G	ne	.	.	.	.
.	.	[1B	ne	.	.
=97	=97	=97	=97	=97	=97
1d	bon	1B]	.	0g	bon
1e	.	1c	bon	.	.
1f	.	1A	.	1a	.
=98	=98	=98	=98	=98	=98
1.g	jour	1.G	jour	0b	jour
2f	.	2A	.	.	.
1d	.	1B	.	1g	.
=99	=99	=99	=99	=99	=99
2r	.	1c	.	0a	.
1c	ne	.	.	.	.
.	.	0A	.	.	.
2d	.	.	.	.	.
2e	.	.	.	1cc	.
2f	.	.	.	.	.
=100	=100	=100	=100	=100	=100
[0.g	.	1G	.	1dd	.
.	.	0c	.	1.ee	.
.	.	.	.	2cc	.
=101	=101	=101	=101	=101	=101
1g]	.	1e	ne	0cc	ne
0f	bon	0d	bon	.	.
.	.	.	.	1b	bon
=102	=102	=102	=102	=102	=102
0.g	an,	0c	an,	0cc	an,
.	.	1c	Tant	1r	.
=103	=103	=103	=103	=103	=103
0.r	.	0c	de	0ee	Tant
.	.	[1B	mal	1dd	de
=104	=104	=104	=104	=104	=104
1.G	Tant	2B]	.	1.b	mal
.	.	2c	.	.	.
.	.	1d	.	.	.
2A	de	.	.	2cc	.
1B	mal	1G	en	1dd	.
=105	=105	=105	=105	=105	=105
1c	en	0c	moy	1g	en
0A	moy	.	.	0cc	moy
.	.	1A	a-	.	.
=106	=106	=106	=106	=106	=106
1.D	a-	0d	-mas-	1b	a-
.	.	.	.	0a	-mas-
2E	.	.	.	.	.
1F	-mas-	1d	-sa.	.	.
=107	=107	=107	=107	=107	=107
1.G	-sa.	1.G	L'au-	0b	-sa.
4F	.	2A	-tre	.	.
4E	.	.	.	.	.
1D	.	1B	d'an-	1r	.
=108	=108	=108	=108	=108	=108
1C	L'au-	1c	-tan	1.g	L'au-
0G	-tre	1d	.	.	.
.	.	.	.	2a	-tre
.	.	2c	.	1b	d'an-
.	.	2B	.	.	.
=109	=109	=109	=109	=109	=109
1F	d'an-	0A	.	0cc	-tan
1c	-tan	.	.	.	.
1d	l'au-	1G	l'au-	1b	l'au-
=110	=110	=110	=110	=110	=110
1e	-trier	2F	-trier	1g	-trier
.	.	2E	.	.	.
1f	.	1D	.	0a	pas-
2e	.	1A	pas-	.	.
2d	.	.	.	.	.
=111	=111	=111	=111	=111	=111
0d	pas-	1B	.	0g	.
.	.	0A	.	.	.
1c	.	.	.	1f#i	.
=112	=112	=112	=112	=112	=112
0.dl	-sa.	0.Gl	-sa.	0.gl	-sa.
!!LO:LB:g=z
=||	=||	=||	=||	=||	=||
!!!RDF**kern: l = long note in original notation
!!!RDF**kern: i = editorial accidental
!!!RDF**kern: V = start of tuplet marker
!!!RDF**kern: Z = end of tuplet marker
!!!RDF**kern: N = signum congruentiae
!!!ENC: Jesse Rodin 18 April 2018
!!!END: 2018/04/17/
!!!EED: Jesse Rodin
!!!EEV: 2018/07/23/
!!!ONB: Translated from MusicXML and edited on 2018/07/23/ by Craig Sapp
!!!COM: Ockeghem, Johannes
!!!CDT: ~1425-1497/02/06
!!!OTL: L'autre d'antan
!!!AGN: Song; Chanson
!!!SCT: Ock3009
!!!SCA: Ock3009
!!!voices: 3
*staff3	*staff3	*staff2	*staff2	*staff1	*staff1
*Ivox	*	*Ivox	*	*Ivox	*
*I"Contratenor	*	*I"Tenor	*	*I"Superius	*
*I'Ct	*	*I'T	*	*I'S	*
*clefGv2	*	*clefGv2	*	*clefG2	*
*k[]	*	*k[]	*	*k[]	*
*M3/1	*	*M3/1	*	*M3/1	*
*met(O3)	*	*met(O3)	*	*met(O3)	*
*>A	*>A	*>A	*>A	*>A	*>A
!!LO:TX:Z=12:t=Form&colon; rondeau
!!LO:TX:Z=42:t=Mensuration&colon; O3
1.D	L'au-	0.r	.	0.r	.
2E	-tre	.	.	.	.
1F	d'an-	.	.	.	.
=114	=114	=114	=114	=114	=114
1.G	-tan	1.G	L'au-	0.r	.
4F	.	2A	-tre	.	.
4E	.	.	.	.	.
1D	.	1B	d'an-	.	.
=115	=115	=115	=115	=115	=115
0C	.	0c	-tan	1.g	L'au-
.	.	.	.	2a	-tre
1r	.	1d	l'au-	1b	d'an-
=116	=116	=116	=116	=116	=116
0C	l'au-	0e	-trier	0cc	-tan
[1G	-trier	1d	.	1b	l'au-
=117	=117	=117	=117	=117	=117
1G]	.	1B	.	1g	-trier
0F	pas-	0c	.	0a	pas-
=118	=118	=118	=118	=118	=118
1.G	.	1.B	pas-	0b	-sa
2F	.	2c	.	.	.
1D	.	1d	.	1r	.
=119	=119	=119	=119	=119	=119
0d	-sa	0G	-sa	1b	Et
.	.	.	.	1b	en
1e	Et	1r	.	1cc	pas-
=120	=120	=120	=120	=120	=120
1d	en	1G	Et	0dd	-sant
0g	pas-	1G	en	.	.
.	.	1G	pas-	1dd	me
=121	=121	=121	=121	=121	=121
1.f	-sant	0D	-sant	0dd	trans-
2d	.	.	.	.	.
1e	.	1r	.	1cc	.
=122	=122	=122	=122	=122	=122
0g	.	1r	.	1b	.
.	.	1r	.	0a	-per-
1f#i	me	1d	me	.	.
=123	=123	=123	=123	=123	=123
0g	trans-	0e	trans-	0g	-&ccedil;a
1f	-per-	1d	.	1r	.
=124	=124	=124	=124	=124	=124
1e	-&ccedil;a	1c	.	0.r	.
1d	.	0B	-per-	.	.
1r	.	.	.	.	.
=125	=125	=125	=125	=125	=125
1.a	D'un	0.A	-&ccedil;a	1cc	D'un
.	.	.	.	1cc	re-
2g	re-	.	.	.	.
1f	-gard	.	.	1cc	-gard
=126	=126	=126	=126	=126	=126
0e	for-	1c	D'un	0g	for-
.	.	1c	re-	.	.
1e	-g&eacute;	1c	-gard	1a	-g&eacute;
=127	=127	=127	=127	=127	=127
1d	a	0G	for-	0b	a
0g	.	.	.	.	.
.	.	[1c	.	1a	.
=128	=128	=128	=128	=128	=128
1.c	.	1c]	.	1g	.
.	.	0d	-g&eacute;	0f	Mil-
2A	.	.	.	.	.
1B	.	.	.	.	.
=129	=129	=129	=129	=129	=129
1.c	.	0A	a	0.e	-lan,
2d	.	.	.	.	.
1e	.	1G	.	.	.
=130	=130	=130	=130	=130	=130
0d	.	1F	.	0.r	.
.	.	0E	Mil-	.	.
1c#i	Mil-	.	.	.	.
=131	=131	=131	=131	=131	=131
0.d	-lan,	0D	-lan,	0a	Qui
.	.	1r	.	[1a	m'a
=132	=132	=132	=132	=132	=132
*>B	*>B	*>B	*>B	*>B	*>B
1.c	Qui	1r	.	1a]	.
.	.	1r	.	1g	.
2B	.	.	.	.	.
1A	m'a	1c	Qui	2f	.
.	.	.	.	2e	.
=133	=133	=133	=133	=133	=133
1B	.	0d	m'a	0.d	mis
0G	mis	.	.	.	.
.	.	[1B	mis	.	.
=134	=134	=134	=134	=134	=134
1d	en	1B]	.	0g	en
1e	.	1c	en	.	.
1f	.	1A	.	1a	.
=135	=135	=135	=135	=135	=135
1.g	l'ar-	1.G	l'ar-	0b	l'ar-
2f	.	2A	.	.	.
1d	.	1B	.	1g	.
=136	=136	=136	=136	=136	=136
2r	.	1c	.	0a	.
1c	-rie-	.	.	.	.
.	.	0A	.	.	.
2d	.	.	.	.	.
2e	.	.	.	1cc	.
2f	.	.	.	.	.
=137	=137	=137	=137	=137	=137
[0.g	.	1G	.	1dd	.
.	.	0c	.	1.ee	.
.	.	.	.	2cc	.
=138	=138	=138	=138	=138	=138
1g]	.	1e	-rie-	0cc	-rie-
0f	-re	0d	-re	.	.
.	.	.	.	1b	-re
=139	=139	=139	=139	=139	=139
0.g	ban,	0c	ban,	0cc	ban,
.	.	1c	Tant	1r	.
=140	=140	=140	=140	=140	=140
0.r	.	0c	mau-	0ee	Tant
.	.	[1B	-vais	1dd	mau-
=141	=141	=141	=141	=141	=141
1.G	Tant	2B]	.	1.b	-vais
.	.	2c	.	.	.
.	.	1d	.	.	.
2A	mau-	.	.	2cc	.
1B	-vais	1G	bras-	1dd	.
=142	=142	=142	=142	=142	=142
1c	bras-	0c	-sin	1g	bras-
0A	-sin	.	.	0cc	-sin
.	.	1A	me	.	.
=143	=143	=143	=143	=143	=143
1.D	me	0d	bras-	1b	me
.	.	.	.	0a	bras-
2E	.	.	.	.	.
1F	bras-	1d	-sa.	.	.
=144	=144	=144	=144	=144	=144
1.G	-sa.	1.G	L'au-	0b	-sa.
4F	.	2A	-tre	.	.
4E	.	.	.	.	.
1D	.	1B	d'an-	1r	.
=145	=145	=145	=145	=145	=145
1C	L'au-	1c	-tan	1.g	L'au-
0G	-tre	1d	.	.	.
.	.	.	.	2a	-tre
.	.	2c	.	1b	d'an-
.	.	2B	.	.	.
=146	=146	=146	=146	=146	=146
1F	d'an-	0A	.	0cc	-tan
1c	-tan	.	.	.	.
1d	l'au-	1G	l'au-	1b	l'au-
=147	=147	=147	=147	=147	=147
1e	-trier	2F	-trier	1g	-trier
.	.	2E	.	.	.
1f	.	1D	.	0a	pas-
2e	.	1A	pas-	.	.
2d	.	.	.	.	.
=148	=148	=148	=148	=148	=148
0d	pas-	1B	.	0g	.
.	.	0A	.	.	.
1c	.	.	.	1f#i	.
=149	=149	=149	=149	=149	=149
0.dl	-sa.	0.Gl	-sa.	0.gl	-sa.
==	==	==	==	==	==
*-	*-	*-	*-	*-	*-
!!!RDF**kern: l = long note in original notation
!!!RDF**kern: i = editorial accidental
!!!RDF**kern: V = start of tuplet marker
!!!RDF**kern: Z = end of tuplet marker
!!!RDF**kern: N = signum congruentiae
!!!ENC: Jesse Rodin 18 April 2018
!!!END: 2018/04/17/
!!!EED: Jesse Rodin
!!!EEV: 2018/07/23/
!!!ONB: Translated from MusicXML and edited on 2018/07/23/ by Craig Sapp
!!muse2ps: C^@{COM}\nEd. @{EED}^i2I150v85,85,110z18l2650c118
